!!!COM: Scriabin, Alexander
!!!OTL: Etude
!!!OPR: 8 Etudes
!!!OPS: 42
!!!ONM: 1
!!!ODT: 1903
!!!AGN: Etude
**kern	**kern
*staff2	*staff1
*clefF4	*clefG2
*k[b-e-a-d-g-]	*k[b-e-a-d-g-]
*D-:	*D-:
*M3/4	*M3/4
=1	=1
20%3G-	12b-L
.	12c
20%3AA-	.
.	12b--J
.	12ffL
20%3DD-	.
.	12b-X
.	12cJ
20%3AA-	.
.	12b--L
.	12ee-
20%3G-	.
.	12a-J
=2	=2
20%3F	12b--L
.	12d-
20%3AA-	.
.	12a-J
.	12dd-L
20%3DD-	.
.	12d-
.	12fJ
20%3BB--	.
.	12a-L
.	12d-
20%3F	.
.	12gnJ
=3	=3
20%3G-	12b-L
.	12c
20%3AA-	.
.	12b--J
.	12ffL
20%3DD-	.
.	12b-X
.	12cJ
20%3AA-	.
.	12b--L
.	12ee-
20%3G-	.
.	12a-J
=4	=4
20%3F	12b--L
.	12d-
20%3AA-	.
.	12a-J
.	12dd-L
20%3DD-	.
.	12d-
.	12fJ
20%3AA-	.
.	12b--L
.	12f
20%3F	.
.	12a-J
=5	=5
20%3Gn	12bnL
.	12c#X
20%3AAn	.
.	12b-XJ
.	12ff#XL
20%3AAAn	.
.	12bn
.	12c#J
20%3AA	.
.	12b-XL
.	12een
20%3G	.
.	12anJ
=6	=6
20%3Gn	12bnL
.	12c#X
20%3AAn	.
.	12b-XJ
.	12eenL
20%3DDn	.
.	12bn
.	12dnJ
20%3AA	.
.	12b-XL
.	12ddn
20%3F#X	.
.	12anJ
=7	=7
20%3An	12gnL
.	12dn
20%3AAn	.
.	12f#XJ
.	12ddnL
20%3DDn	.
.	12e#X
.	12dJ
20%3AA	.
.	12f#L
.	12dd
20%3F#X	.
.	12cc#XJ
=8	=8
20%3G-	12ccnL
.	12e-
20%3AA-	.
.	12g-J
.	12ccL
20%3AAA-	.
.	12A-
.	12cJ
20%3AA-	.
.	12fL
.	12c
20%3G-	.
.	12e-J
=9	=9
20%3G-	12b-L
.	12c
20%3AA-	.
.	12b--J
.	12ffL
20%3DD-	.
.	12b-X
.	12cJ
20%3AA-	.
.	12b--L
.	12ee-
20%3G-	.
.	12a-J
=10	=10
20%3F	12b--L
.	12d-
20%3AA-	.
.	12a-J
.	12dd-L
20%3DD-	.
.	12d-
.	12fJ
20%3BB--	.
.	12a-L
.	12d-
20%3F	.
.	12gnJ
=11	=11
20%3G-	12b-L
.	12c
20%3AA-	.
.	12b--J
.	12ffL
20%3DD-	.
.	12b-X
.	12cJ
20%3AA-	.
.	12b--L
.	12ee-
20%3G-	.
.	12a-J
=12	=12
20%3F	12b--L
.	12d-
20%3AA-	.
.	12a-J
.	12dd-L
20%3DD-	.
.	12d-
.	12fJ
20%3AA-	.
.	12b--L
.	12f
20%3F	.
.	12a-J
=13	=13
20%3r	12ee-L
.	12f
20%3c-X	.
.	12ee--J
.	12bb-L
20%3D-	.
.	12ee-X
.	12fJ
20%3c-	.
.	12ee--L
.	12aa-
20%3f	.
.	12dd-J
*clefG2	*
=14	=14
20%3cc#X	12ff#XL
.	12gn
*clefF4	*
20%3c#X	.
.	12ffnJ
.	12bbnL
20%3Gn	.
.	12ff#X
.	12gJ
20%3AAn	.
.	12ffnL
.	12aan
20%3r	.
.	12eenJ
=15	=15
20%3r	12ffL
.	12gn
20%3d-	.
.	12ff-XJ
.	12cccL
20%3E-	.
.	12ffn
.	12gJ
20%3d-	.
.	12ff-XL
.	12bb-
20%3gn	.
.	12ee-J
=16	=16
*clefG2	*
20%3dd#X	12gg#XL
.	12an
*clefF4	*
20%3d#X	.
.	12ggnJ
.	12ccc#XL
20%3An	.
.	12gg#X
.	12aJ
20%3BBn	.
.	12ggnL
.	12bbn
20%3r	.
.	12ff#XJ
=17	=17
20%3r	12cc#XL
.	12d#X
20%3An	.
.	12ccnJ
.	12ff#XL
20%3BBn	.
.	12bn
.	12d#J
20%3D#X	.
.	12a#XL
.	12ff##X
20%3d#X	.
.	12anJ
=18	=18
20%3g-	12r
.	12a-XL
20%3A-	.
.	12ddnJ
.	12aa-L
20%3C	.
.	12ff
.	12a-J
20%3A-	.
.	12ff-XL
.	12aa-
20%3g-	.
.	12ee-J
=19	=19
20%3r	12b-L
.	12g-
20%3A-	.
.	12b--J
.	12ee-L
20%3C	.
.	12a-
.	12A-J
20%3A-	.
.	12gnL
.	12een
20%3r	.
.	12g-XJ
=20	=20
20%3f	12r
.	12fL
20%3A-	.
.	12a-J
.	12ffL
20%3D-	.
.	12dd-
.	12fJ
20%3A-	.
.	12ccL
.	12ff
20%3f	.
.	12cc-XJ
=21	=21
20%3a-	12r
.	12b-L
20%3B-	.
.	12eenJ
.	12bb-L
20%3Dn	.
.	12ggn
.	12a-J
20%3B-	.
.	12gg-XL
.	12bb-
20%3a-	.
.	12ffJ
=22	=22
20%3a-	12r
.	12dd-L
20%3d-	.
.	12cccnJ
.	12fffL
20%3E-	.
.	12aan
.	12dd-J
20%3d-	.
.	12cccL
.	12fff
20%3a-	.
.	12bb-J
=23	=23
20%3a-	12r
.	12a-L
20%3d-	.
.	12ggnJ
.	12eee-XL
20%3E-	.
.	12een
.	12a-J
20%3d-	.
.	12ggL
.	12ddd-
20%3a-	.
.	12ffJ
=24	=24
20%3gn	12r
.	12gnL
20%3d-	.
.	12dd-J
.	12cccL
20%3E-	.
.	12ff
.	12gJ
20%3d-	.
.	12ffL
.	12ccc
20%3g	.
.	12ee-J
=25	=25
*^	*
4rc	4E- 4d-	12ffL
.	.	12gn
.	.	12ff-XJ
4rc	4AAA- 4AA-	12cccL
.	.	12ee-
.	.	12gJ
8.f-XL	4E-	12ddnL
.	.	12bb-
.	.	12dd-XJ
16e-Jk	.	.
=26	=26	=26
4rc	4E- 4dn	12ccL
.	.	12a-
.	.	12b-J
4rc	4AAA- 4AA-	12aa-L
.	.	12cc-X
.	.	12a-J
8.c-XL	4E-	12dd-L
.	.	12aa-
.	.	12ddnJ
16c-Jk	.	.
=27	=27	=27
4rc	4E- 4dn	12ccnL
.	.	12a-
.	.	12b-J
4rc	4AAA- 4AA-	12ggnL
.	.	12bn
.	.	12a-J
8.c-XL	4E-	12dd-L
.	.	12ff
.	.	12ddnJ
16cnJk	.	.
=28	=28	=28
2.ryy	4E- 4d-X	12ffL
.	.	12gn
.	.	12anJ
.	4AAA- 4AA-	12ffL
.	.	12cc
.	.	12gJ
.	4r	12ccL
.	.	12ee-
.	.	12b-J
=29	=29	=29
2.ryy	4EE- 4E-	12fL
.	.	12d-
.	.	12f-XJ
.	4AAA- 4AA-	12ccL
.	.	12e-
.	.	12GnJ
.	4r	12dnL
.	.	12b-
.	.	12d-XJ
=30	=30	=30
2.ryy	4FF-X 4F-X	12cL
.	.	12A-
.	.	12B-J
.	4AAA- 4AA-	12a-L
.	.	12c-X
.	.	12A-J
.	4r	12d-L
.	.	12a-
.	.	12dnJ
=31	=31	=31
2.ryy	4EE- 4E-	12fL
.	.	12d-
.	.	12f-XJ
.	4AAA- 4AA-	12ccL
.	.	12e-
.	.	12GnJ
.	4r	12dnL
.	.	12b-
.	.	12d-XJ
=32	=32	=32
2.ryy	4FF-X 4F-X	12cL
.	.	12A-
.	.	12B-J
.	4AAA- 4AA-	12a-L
.	.	12c-X
.	.	12A-J
.	4r	12d-L
.	.	12a-
.	.	12dnJ
=33	=33	=33
2.ryy	4EE- 4E-	12e-L
.	.	12A-
.	.	12cnJ
.	4AAA- 4AA-	12a-L
.	.	12c
.	.	12A-J
.	4DDn 4Dn	12cL
.	.	12gn
.	.	12fJ
=34	=34	=34
2.ryy	4EE- 4E-	12cL
.	.	12A-
.	.	12cJ
.	4AAA- 4AA-	12a-L
.	.	12c
.	.	12A-J
.	4DDn 4Dn	12cL
.	.	12gn
.	.	12fJ
=35	=35	=35
2.ryy	4EE- 4E-	12r
.	.	12A-L
.	.	12cJ
.	4AAA- 4AA-	12fL
.	.	12c
.	.	12e-J
.	4r	12b-L
.	.	12e-
.	.	12a-J
=36	=36	=36
2.ryy	4AA- 4A-	12r
.	.	12e-L
.	.	12a-J
.	4r	12dd-L
.	.	12a-
.	.	12ccJ
.	4r	12ffL
.	.	12cc
.	.	12ee-J
*v	*v	*
=37||	=37||
*k[f#c#g#d#a#]	*k[f#c#g#d#a#]
8F#L	12r
.	12d#L
8BBJ	.
.	12f#J
8d#L	12cc#L
.	12f#
8F#J	.
.	12bJ
8f#L	12eeL
.	12b
8d#J	.
.	12dd#J
=38	=38
8b	12gg#L
.	12ff#
8r	.
.	12bbJ
4r	12gg#L
.	12ff#
.	12bJ
4r	12dd#L
.	12g#
.	12f#J
=39	=39
2GGn 2Gn	12f#L
.	12B
.	12e#XJ
.	12bL
.	12en
.	12BJ
4BB 4F#	12c##XL
.	12b
.	12d#J
=40	=40
2GGn 2Gn	12f#L
.	12B
.	12e#XJ
.	12bL
.	12en
.	12BJ
4BB 4F#	12c##XL
.	12b
.	12d#J
=41||	=41||
*k[b-e-]	*k[b-e-]
2CC-X 2C-X	12r
.	12e-L
.	12cc-XJ
.	12ee-L
.	12b-
.	12e-J
4FF 4F	12aL
.	12gg-X
.	12ffJ
=42	=42
2.r	12aaL
.	12ff
.	12ee-J
.	12ffL
.	12ee-
.	12aJ
.	12ee-L
.	12a
.	12fJ
=43	=43
4CC-X 4C-X	12aL
.	12f
.	12e-J
4F	12fL
.	12e-
.	12AJ
4r	12e-L
.	12A
.	12FJ
=44	=44
2.r	12AL
.	12e-
.	12fJ
.	12e-L
.	12f
.	12aJ
.	12fL
.	12a
.	12ffJ
=45	=45
8FL	12r
.	12dL
8BB-J	.
.	12fJ
8dL	12ccL
.	12f
8FJ	.
.	12b-J
8fL	12ee-L
.	12b-
8dJ	.
.	12ddJ
=46	=46
8b-	12ggL
.	12ff
8r	.
.	12bb-J
4r	12ggL
.	12ff
.	12b-J
4r	12ddL
.	12g
.	12fJ
=47	=47
2GG-X 2G-X	12fL
.	12B-
.	12enJ
.	12b-L
.	12e-X
.	12B-J
4BB- 4F	12c#XL
.	12b-
.	12dJ
=48	=48
2GG-X 2G-X	12fL
.	12B-
.	12enJ
.	12b-L
.	12e-X
.	12B-J
4BB- 4F	12c#XL
.	12b-
.	12dJ
=49	=49
2BBB- 2BB-	12r
.	12dL
.	12b-J
.	12ddL
.	12a
.	12dJ
4EEn 4En	12g#XL
.	12ff
.	12eenJ
=50	=50
2.r	12gg#XL
.	12een
.	12ddJ
.	12eeL
.	12dd
.	12g#XJ
.	12ddL
.	12g#
.	12enJ
=51	=51
4BBB- 4BB-	12g#XL
.	12en
.	12dJ
4En	12eL
.	12d
.	12G#XJ
4r	12dL
.	12G#
.	12EnJ
=52	=52
2.r	12G#XL
.	12d
.	12enJ
.	12dL
.	12e
.	12g#XJ
.	12eL
.	12g#
.	12eenJ
=53||	=53||
*k[f#c#g#]	*k[f#c#g#]
4EE 4E	12f#L
.	12d
.	12fnJ
4AAA 4AA	12cc#L
.	12e
.	12G#J
4r	12d#XL
.	12b
.	12dnJ
=54	=54
4FFn 4Fn	12c#L
.	12A
.	12BJ
4AAA 4AA	12aL
.	12cn
.	12AJ
4r	12dL
.	12a
.	12d#XJ
=55	=55
4EE 4E	12f#L
.	12d
.	12fnJ
4AAA 4AA	12cc#L
.	12e
.	12G#J
4r	12d#XL
.	12b
.	12dnJ
=56	=56
4EE 4E	12c#L
.	12A
.	12c#J
4AAA 4AA	12aL
.	12c#
.	12AJ
4r	12c#L
.	12a
.	12g#J
=57	=57
2AA 2D#X	12g#L
.	12c#
.	12f##XJ
.	12cc#L
.	12f#X
.	12B#XJ
4GG# 4F#	12aL
.	12dd#X
.	12g#J
=58	=58
*^	*
8E#XL	4E#	12aL
.	.	12c#
8GG#J	.	.
.	.	12g#J
8CC#	4rEE	12ee#XL
.	.	12cc#
8rc	.	.
.	.	12e#XJ
4rc	4rEE	12c#L
.	.	12e#
.	.	12g#J
*v	*v	*
=59	=59
2Cn 2F#	12bL
.	12e
.	12a#XJ
.	12eeL
.	12an
.	12d#XJ
4BB 4A	12ccnL
.	12ff#
.	12bJ
=60	=60
*^	*
8G#L	4G#	12ccnL
.	.	12e
8BBJ	.	.
.	.	12bJ
8EE	4rEE	12gg#L
.	.	12ee
8rc	.	.
.	.	12g#J
4rc	4rEE	12eL
.	.	12g#
.	.	12bJ
*v	*v	*
=61	=61
2.E 2.A#X	12dd#XL
.	12g#
.	12cc##XJ
.	12gg#L
.	12cc#X
.	12g#J
.	12b#XL
.	12gg#
.	12cc#J
=62	=62
2.D#X 2.c#	12ee#XL
.	12f##X
.	12eenJ
.	12aa#XL
.	12dd#X
.	12f##J
.	12cc##XL
.	12aa##X
.	12dd#J
=63	=63
8GG# 8D#X 8B#X	12g#L 12dd#X 12bb#X
.	12d#X
8r	.
.	12g#J
4r	12cc#L
.	12g#
.	12b#XJ
4r	12ee#XL
.	12b#
.	12dd#J
=64	=64
2.r	12aa#XL
.	12dd#X
.	12gg#J
.	12ee#XL
.	12g#
.	12dd#J
.	6a#X
.	12a#
=65||	=65||
*k[b-e-a-d-g-]	*k[b-e-a-d-g-]
8G-L	12b-L
.	12c
8AA-	.
.	12b--J
8DD-	12ffL
.	12b-X
8AA-	.
.	12cJ
8G-	12b--L
.	12ee-
8cJ	.
.	12a-J
=66	=66
8FL	12b--L
.	12d-
8AA-	.
.	12a-J
8DD-	12dd-L
.	12d-
8BB--	.
.	12fJ
8F	12a-L
.	12f
8d-J	.
.	12gnJ
=67	=67
8G-L	12b-L
.	12c
8AA-	.
.	12b--J
8DD-	12ffL
.	12b-X
8AA-	.
.	12cJ
8G-	12b--L
.	12ee-
8cJ	.
.	12a-J
=68	=68
8FL	12b--L
.	12d-
8AA-	.
.	12a-J
8DD-	12dd-L
.	12d-
8AA-	.
.	12fJ
8F	12b--L
.	12f
8d-J	.
.	12a-J
=69	=69
8GnL	12bnL
.	12c#X
8AAn	.
.	12b-XJ
8AAAn	12ff#XL
.	12bn
8AA	.
.	12c#J
8G	12b-XL
.	12een
8c#XJ	.
.	12anJ
=70	=70
8GnL	12bnL
.	12c#X
8AAn	.
.	12b-XJ
8DDn	12eenL
.	12bn
8AA	.
.	12dnJ
8F#X	12b-XL
.	12ddn
8dnJ	.
.	12anJ
=71	=71
8AnL	12gnL
.	12dn
8AAn	.
.	12f#XJ
8DDn	12ddnL
.	12e#X
8AA	.
.	12dJ
8F#X	12f#L
.	12dd
8dnJ	.
.	12cc#XJ
=72	=72
8G-L	12ccnL
.	12e-
8AA-J	.
.	12g-J
8AAA-	12ccL
.	12A-
8r	.
.	12cJ
4r	12fL
.	12c
.	12d-J
=73	=73
8G-L	12b-L
.	12c
8AA-	.
.	12b--J
8DD-	12ffL
.	12b-X
8AA-	.
.	12cJ
8G-	12b--L
.	12ee-
8cJ	.
.	12a-J
=74	=74
8FL	12b--L
.	12d-
8AA-	.
.	12a-J
8DD-	12dd-L
.	12d-
8BB--	.
.	12fJ
8F	12a-L
.	12f
8d-J	.
.	12gnJ
=75	=75
8G-L	12b-L
.	12c
8AA-	.
.	12b--J
8DD-	12ffL
.	12b-X
8AA-	.
.	12cJ
8G-	12b--L
.	12ee-
8cJ	.
.	12a-J
=76	=76
8FL	12b--L
.	12d-
8AA-J	.
.	12a-J
8DD-	12dd-L
.	12d-
8r	.
.	12fJ
4r	12b-XL
.	12f
.	12a-J
=77	=77
8F-XL	12a-L
.	12B-
8GG-	.
.	12a--J
8GGG-	12ee-L
.	12a-X
8GG-	.
.	12B-J
8F-	12a--L
.	12dd-
8B-J	.
.	12g-J
=78	=78
8f#XL	12bnL
.	12c
8F#X	.
.	12b-XJ
8C	12eenL
.	12bn
8DDnJ	.
.	12cJ
8DDDn	12b-XL
.	12ddn
8r	.
.	12anJ
=79	=79
8G-L	12b-L
.	12c
8AA-	.
.	12b--J
8AAA-	12ffL
.	12b-X
8AA-	.
.	12cJ
8G-	12b--L
.	12ee-
8cJ	.
.	12a-J
=80	=80
8g#XL	12cc#XL
.	12dn
8G#X	.
.	12ccnJ
8Dn	12ff#XL
.	12cc#X
8EEnJ	.
.	12dJ
8EEEn	12ccnL
.	12een
8r	.
.	12bnJ
=81	=81
8DnL	12f#XL
.	12G#X
8EEn	.
.	12fnJ
8EEEn	12bnL
.	12en
8EE	.
.	12G#J
8GG#X	12d#XL
.	12b#X
8G#XJ	.
.	12dnJ
=82	=82
8c-XL	12r
.	12d-XL
8D-	.
.	12gnJ
8FF	12dd-L
.	12b-
8FFJ	.
.	12d-J
8FFF	12b--L
.	12dd-
8r	.
.	12a-J
=83	=83
8D-L	12e-L
.	12c-X
8FF	.
.	12e--J
8FFF	12a-L
.	12d-
8FF	.
.	12D-J
8D-J	12cnL
.	12an
8r	.
.	12c-XJ
=84	=84
8B-L	12r
.	12B-L
8D-	.
.	12d-J
8GG-	12b-L
.	12g-
8GG-J	.
.	12B-J
8GGG-	12fL
.	12b-
8r	.
.	12f-XJ
=85	=85
8d-L	12r
.	12e-L
8E-	.
.	12anJ
8GGn	12ee-L
.	12cc
8GGJ	.
.	12e-J
8GGGn	12cc-XL
.	12ee-
8r	.
.	12b-J
=86	=86
8d-L	12r
.	12g-L
8G-	.
.	12ffJ
8AA-	12bb-L
.	12ddn
8AA-J	.
.	12g-J
8AAA-	12ffL
.	12bb-
8r	.
.	12ee-J
=87	=87
8d-L	12r
.	12e-L
8G-	.
.	12ccJ
8AA-	12aa-L
.	12an
8AA-J	.
.	12e-J
8AAA-	12ccL
.	12gg-
8r	.
.	12b-J
=88	=88
8cL	12r
.	12g-L
8G-	.
.	12b-J
8AA-	12ffL
.	12b-
8AA-J	.
.	12g-J
8AAA-	12b-L
.	12ee-
8r	.
.	12a-J
=89	=89
*^	*
4rc	4AA- 4G-	12b-L
.	.	12c
.	.	12b--J
4rc	4DDD- 4DD-	12ffL
.	.	12a-
.	.	12cJ
8.B--L	4AA-	12gnL
.	.	12ee-
.	.	12g-XJ
16A-Jk	.	.
=90	=90	=90
2.ryy	4AA- 4Gn	12fL
.	.	12d-
.	.	12e-J
.	4DDD- 4DD-	12dd-L
.	.	12f-X
.	.	12d-J
.	4AA- 4F-X	12g-XL
.	.	12dd-
.	.	12gnJ
=91	=91	=91
4rc	4AA- 4Gn	12fL
.	.	12d-
.	.	12e-J
4rc	4DDD- 4DD-	12ccL
.	.	12en
.	.	12d-J
8.F-XL	4AA-	12g-L
.	.	12b-
.	.	12gnJ
16FnJk	.	.
=92	=92	=92
2.ryy	4AA- 4G-	12b-L
.	.	12c
.	.	12dnJ
.	4DDD- 4DD-	12b-L
.	.	12f
.	.	12cJ
.	4r	12fL
.	.	12a-
.	.	12e-J
=93	=93	=93
2.ryy	4AA- 4G-	12b-L
.	.	12c
.	.	12b--J
.	4DDD- 4DD-	12ffL
.	.	12a-
.	.	12cJ
.	4r	12gnL
.	.	12ee-
.	.	12g-XJ
=94	=94	=94
2.ryy	4BB-- 4Gn	12fL
.	.	12d-
.	.	12e-J
.	4DDD- 4DD-	12dd-L
.	.	12f-X
.	.	12d-J
.	4r	12g-XL
.	.	12dd-
.	.	12gnJ
=95	=95	=95
2.ryy	4AA- 4G-X	12b-L
.	.	12c
.	.	12b--J
.	4DDD- 4DD-	12ffL
.	.	12a-
.	.	12cJ
.	4r	12gnL
.	.	12ee-
.	.	12g-XJ
=96	=96	=96
2.ryy	4BB-- 4Gn	12fL
.	.	12d-
.	.	12e-J
.	4DDD- 4DD-	12dd-L
.	.	12f-X
.	.	12d-J
.	4r	12g-XL
.	.	12dd-
.	.	12gnJ
=97	=97	=97
2.ryy	4AA- 4F 4A-	12a-L
.	.	12d-
.	.	12fJ
.	4DDD- 4DD-	12dd-L
.	.	12f
.	.	12d-J
.	4AA- 4Gn	12fL
.	.	12cc
.	.	12b-J
=98	=98	=98
2.ryy	4AA- 4A-	12fL
.	.	12d-
.	.	12fJ
.	4DDD- 4DD-	12dd-L
.	.	12f
.	.	12d-J
.	4AA- 4Gn	12fL
.	.	12cc
.	.	12b-J
=99	=99	=99
2.ryy	4AA- 4A-	12r
.	.	12A-L
.	.	12d-J
.	4DDD- 4DD-	12g-L
.	.	12d-
.	.	12fJ
.	4r	12b-L
.	.	12f
.	.	12a-J
=100	=100	=100
2.ryy	4DD- 4AA- 4F	12r
.	.	12d-L
.	.	12fJ
.	4r	12b-L
.	.	12f
.	.	12a-J
.	4r	12ee-L
.	.	12a-
.	.	12dd-J
=101	=101	=101
2.ryy	8c-XL	12r
.	.	12fL
.	8D-J	.
.	.	12a-J
.	8fL	12ee-L
.	.	12a-
.	8c-J	.
.	.	12dd-J
.	8a-L	12gg-L
.	.	12dd-
.	8fJ	.
.	.	12ffJ
=102	=102	=102
2.ryy	4dd-	12bb-L
.	.	12aa-
.	.	12ddd-J
.	4r	12bb-L
.	.	12aa-
.	.	12dd-J
.	4r	12ffL
.	.	12b-
.	.	12a-J
=103	=103	=103
2B-	4Dn	12a-L
.	.	12d-X
.	.	12gnJ
.	4E-	12dd-L
.	.	12g-X
.	.	12d-J
4G-	4AA-	12fL
.	.	12c
.	.	12f-XJ
=104	=104	=104
2.ryy	4DD- 4AA- 4F	12e-L
.	.	12A-
.	.	12e--J
.	4r	12a-L
.	.	12d-
.	.	12A-J
.	4r	12d-L
.	.	12f
.	.	12a-J
=105	=105	=105
2.ryy	8c-XL	12r
.	.	12fL
.	8D-J	.
.	.	12a-J
.	8fL	12ee-L
.	.	12a-
.	8c-J	.
.	.	12dd-J
.	8a-L	12gg-L
.	.	12dd-
.	8fJ	.
.	.	12ffJ
=106	=106	=106
2.ryy	4dd-	12bb-L
.	.	12aa-
.	.	12ddd-J
.	4r	12bb-L
.	.	12aa-
.	.	12dd-J
.	4r	12ffL
.	.	12b-
.	.	12a-J
=107	=107	=107
2B-	4Dn	12a-L
.	.	12d-X
.	.	12gnJ
.	4E-	12dd-L
.	.	12g-X
.	.	12d-J
4G-	4AA-	12fL
.	.	12c
.	.	12e-J
=108	=108	=108
2.ryy	4DD- 4AA- 4F	12e-L
.	.	12A-
.	.	12e--J
.	4r	12a-L
.	.	12d-
.	.	12A-J
.	4r	12d-L
.	.	12f
.	.	12a-J
=109	=109	=109
2B-	4Dn	12a-L
.	.	12d-X
.	.	12gnJ
.	4E-	12dd-L
.	.	12g-X
.	.	12d-J
4G-	4AA-	12fL
.	.	12c
.	.	12e-J
=110	=110	=110
2.ryy	4DD- 4AA- 4F	12e-L
.	.	12A-
.	.	12e--J
.	4r	12a-L
.	.	12d-
.	.	12A-J
.	4AA- 4G-	12fL
.	.	12c
.	.	12e-XJ
=111	=111	=111
2.ryy	8AA-L	12r
.	.	12FL
.	8DD-J	.
.	.	12A-J
.	8FL	12e-L
.	.	12A-
.	8AA-J	.
.	.	12d-J
.	8A-L	12g-L
.	.	12d-
.	8FJ	.
.	.	12fJ
=112	=112	=112
2.ryy	8d-L	12b-L
.	.	12f
.	8A-J	.
.	.	12a-J
.	8fL	12ee-L
.	.	12a-
.	8d-J	.
.	.	12dd-J
.	8a-L	12gg-L
.	.	12dd-
.	8fJ	.
.	.	12ffJ
*clefG2	*	*
=113	=113	=113
2.ryy	4ff	4ddd-
*clefF4	*	*
.	4r	4r
.	4r	4r
=114	=114	=114
*	*	*^
2.ryy	4DD- 4AA- 4D-	4dd-	4F 4A- 4d- 4f
.	4r	4raa	4rc
.	4r	4raa	4rc
*v	*v	*	*
*	*v	*v
==	==
*-	*-
!!!system-decoration: {(*)}
!!!ENC: Bryan Jacob Bell
!!!END: November 2021 to April 2022
!!!PED: Konstantin Igumnov and Yakov Milstein
!!!PTL: A.N. Skryabin: Polnoe sobranie sochinenii dlia fortepiano (Muzgiz)
